assets/img/win.svg

<svg width="120" height="120" viewBox="0 0 120 120" fill="none" xmlns="http://www.w3.org/2000/svg">
<circle cx="60" cy="60" r="60" fill="#F3F3F3"/>
<path d="M76.0512 94.3525H78.7187C79.0576 94.3525 79.3785 94.1984 79.5901 93.9333C79.8017 93.6689 79.8819 93.3224 79.8075 92.9917L78.0421 85.1361L82.5971 93.7578C82.79 94.124 83.1702 94.3525 83.5835 94.3525H86.251C86.601 94.3525 86.9311 94.188 87.1421 93.9083C87.3532 93.6287 87.42 93.266 87.3241 92.9295L84.0334 81.4409C83.9991 81.3194 84.0073 81.1886 84.0584 81.0729C84.0852 81.0107 84.1067 80.9468 84.1218 80.8805L86.2999 71.5741C86.3004 71.573 86.3004 71.5724 86.3004 71.5712C86.3028 71.5613 86.3045 71.5515 86.3068 71.541C86.3097 71.527 86.3115 71.5125 86.3138 71.498C86.3173 71.4771 86.3208 71.4555 86.3231 71.434C86.3249 71.4154 86.3254 71.3963 86.3266 71.3777C86.3272 71.3631 86.3289 71.3492 86.3295 71.3352C86.3295 71.3335 86.3289 71.3317 86.3289 71.3306C86.3289 71.3259 86.3289 71.3219 86.3289 71.3172C86.3289 71.3149 86.3295 71.312 86.3295 71.3091L86.3092 69.1821C86.3033 68.5695 85.8052 68.0765 85.1937 68.0765C85.1902 68.0765 85.1861 68.0765 85.1826 68.0765C84.5665 68.0823 84.0718 68.5869 84.0776 69.2031L84.0863 70.1883L78.7071 70.1157L78.5147 62.0817L79.0623 62.3555C79.6139 62.6316 80.2841 62.4078 80.5597 61.8568C80.8352 61.3051 80.612 60.6349 80.0609 60.3588L68.1643 54.411C67.0558 53.8699 66.4222 52.755 66.4565 51.5976L83.122 59.7287C83.6649 59.9897 84.0189 60.5477 84.0235 61.1499L84.0503 64.8428C84.0549 65.4567 84.5537 65.9508 85.1664 65.9508H85.1745C85.7907 65.9461 86.2871 65.4427 86.2824 64.8265L86.2557 61.133C86.2458 59.8135 85.5366 58.5847 84.4275 57.904C84.8298 57.5407 85.1489 57.0745 85.3343 56.5263L86.1545 54.107C86.4365 53.2752 86.3778 52.3829 85.9889 51.5953C85.6 50.8076 84.9274 50.2182 84.0956 49.9363L83.1377 49.6119C82.3058 49.33 81.4141 49.3887 80.6259 49.7776C79.8383 50.1665 79.2494 50.839 78.9675 51.6709L78.1473 54.0902C78.0746 54.3052 78.0252 54.5244 77.9979 54.7447L66.8802 49.3207V48.6237C66.8802 46.9246 65.9333 45.4034 64.4092 44.6536L61.7242 43.3317L61.7254 39.7498C61.8579 39.6888 61.9875 39.6179 62.1119 39.5353C63.9767 38.303 65.509 36.701 66.6401 34.8612C66.9825 35.0553 67.372 35.1629 67.7719 35.1629C67.9132 35.1629 68.0562 35.1501 68.198 35.1228C68.8031 35.0083 69.2013 34.4241 69.0862 33.8184C68.9711 33.2127 68.3875 32.8151 67.7818 32.9302C67.7661 32.9325 67.7423 32.922 67.7312 32.9156C67.7167 32.8523 67.7353 32.6994 67.7795 32.6035C67.8562 32.4395 68.6508 32.3698 69.1257 32.3279C70.2325 32.2309 71.7479 32.0977 72.9047 30.9735C74.3846 29.536 74.777 26.9784 73.7981 25.1519C73.0546 23.7644 71.6131 22.8384 70.1261 22.7925C69.6256 22.7756 69.1763 22.8361 68.7781 22.9495C68.5735 22.3432 68.0004 21.9043 67.3261 21.9043H53.8919C53.2113 21.9043 52.6335 22.3507 52.4341 22.9663C51.9824 22.8349 51.5069 22.7786 51.057 22.7931C49.5701 22.839 48.1291 23.765 47.3856 25.1525C46.4061 26.9789 46.7985 29.5366 48.2784 30.9741C49.4358 32.0983 50.9506 32.2314 52.0574 32.3285C52.5323 32.3698 53.3275 32.4401 53.4037 32.6041C53.4478 32.6994 53.4664 32.8499 53.4525 32.915C53.4385 32.9238 53.4159 32.9331 53.4019 32.9307C52.7956 32.8151 52.212 33.2132 52.0969 33.8189C51.9824 34.4241 52.38 35.0083 52.9857 35.1234C53.1275 35.1507 53.27 35.1635 53.4118 35.1635C53.8053 35.1635 54.189 35.0588 54.5279 34.8705C55.6277 36.6888 57.1169 38.2797 58.9276 39.5138C59.1072 39.6365 59.2967 39.7359 59.4926 39.8132V43.3323L56.8083 44.6536C55.2847 45.404 54.3378 46.9252 54.3378 48.6237V49.423L49.0091 52.0231C48.4552 52.2934 48.2256 52.9619 48.4958 53.5153C48.7656 54.0692 49.434 54.2994 49.988 54.0291L54.9708 51.5976C55.0051 52.7555 54.3698 53.871 53.2543 54.4157L41.3669 60.3594C40.8159 60.6349 40.5921 61.3051 40.8682 61.8568C41.0635 62.248 41.4576 62.4735 41.8674 62.4735C42.0348 62.4735 42.2052 62.4357 42.3656 62.3555L42.9132 62.0817L42.7208 70.1157L37.3386 70.1883L37.4037 61.1505C37.4084 60.5477 37.763 59.9897 38.3117 59.7257L46.2044 55.8747C46.7584 55.6044 46.988 54.9365 46.7177 54.3826C46.448 53.8286 45.7795 53.5984 45.2255 53.8687L43.4299 54.7447C43.4026 54.5244 43.3532 54.3052 43.2805 54.0902L42.4603 51.6714C42.1784 50.839 41.5896 50.1665 40.8014 49.7776C40.0137 49.3887 39.122 49.3294 38.2896 49.6119L37.3322 49.9363C36.5004 50.2188 35.8279 50.8076 35.439 51.5953C35.0501 52.3835 34.9908 53.2752 35.2733 54.107L36.0929 56.5263C36.2789 57.0751 36.5981 57.5407 37.0003 57.9046C35.8895 58.5876 35.182 59.8153 35.1716 61.1342L35.0983 71.312V71.3189C35.0983 71.3242 35.0978 71.3294 35.0978 71.3352C35.0983 71.348 35.1001 71.3608 35.1007 71.3736C35.1007 71.3806 35.1001 71.387 35.1007 71.3939C35.3925 75.7844 35.6849 80.7282 35.6721 81.5496L32.4134 92.9295C32.3169 93.2666 32.3837 93.6287 32.5947 93.9089C32.8057 94.1885 33.1359 94.353 33.4859 94.353H36.1534C36.5673 94.353 36.9468 94.124 37.1398 93.7584L41.696 85.1338L39.9306 92.9917C39.8562 93.3224 39.9358 93.6694 40.148 93.9339C40.3596 94.1984 40.6804 94.3525 41.0193 94.3525H43.6863C44.1391 94.3525 44.5466 94.0792 44.7186 93.6607L49.319 82.4709C49.5991 81.9065 49.4794 81.1613 48.8708 79.5494C48.5104 78.5949 47.9715 77.3382 47.2693 75.8129C46.3038 73.715 45.2842 71.6666 44.9326 70.9661L45.1726 60.9523L54.2425 56.4171C56.3031 55.4109 57.4163 53.2618 57.1721 51.1041H64.2551C64.011 53.2618 65.1224 55.4097 67.1755 56.4124L76.2552 60.9523L76.4924 70.8667L70.8911 78.5629C69.8948 79.6319 69.7076 81.2218 70.4278 82.4919L75.0188 93.6607C75.1909 94.0792 75.5989 94.3525 76.0512 94.3525ZM37.4403 52.5835C37.5653 52.3306 37.7816 52.1411 38.0484 52.0504L39.0063 51.7261C39.1174 51.6883 39.2319 51.6697 39.3464 51.6697C39.5068 51.6697 39.6655 51.7063 39.8132 51.779C40.0666 51.904 40.2561 52.1202 40.3468 52.3876L41.1664 54.8063C41.2571 55.0737 41.2385 55.3609 41.1129 55.6137C40.9879 55.8672 40.7723 56.0561 40.5049 56.1468L39.5475 56.4711C38.9953 56.6589 38.3942 56.3618 38.2071 55.8102L37.3869 53.3909C37.2962 53.1235 37.3154 52.8369 37.4403 52.5835ZM35.4808 92.1203H34.9664L37.8496 82.0553C37.9141 81.8286 38.0019 81.5229 37.4055 72.4199L42.3859 72.3525L42.5673 72.3502C42.1476 76.207 41.6512 80.1272 41.4419 80.8369L35.4808 92.1203ZM42.9387 92.1203H42.4138L44.3274 83.6039C44.5239 83.0208 44.4356 82.3843 44.0845 81.8745L43.652 81.1787C43.8124 80.4667 44.0228 79.0925 44.3658 76.25C44.4106 75.8797 44.4542 75.51 44.496 75.149C45.9091 78.1235 47.0955 80.8805 47.2199 81.706L42.9387 92.1203ZM80.2614 54.8069L81.0811 52.3876C81.1717 52.1202 81.3612 51.904 81.6147 51.779C81.7623 51.7063 81.9216 51.6697 82.0815 51.6697C82.196 51.6697 82.3105 51.6883 82.4215 51.7261L83.3789 52.0504C83.6463 52.1411 83.8625 52.3306 83.9875 52.5835C84.1125 52.8369 84.1317 53.1235 84.041 53.3909L83.2208 55.8102C83.0342 56.3618 82.4326 56.6589 81.8809 56.4711L80.9235 56.1468C80.6561 56.0561 80.4399 55.8672 80.3149 55.6137C80.1894 55.3609 80.1708 55.0737 80.2614 54.8069ZM70.057 25.0235C70.8533 25.0485 71.5346 25.6542 71.831 26.207C72.3379 27.1522 72.1124 28.6315 71.3497 29.3733C70.7621 29.9441 69.8727 30.022 68.931 30.1051C68.7996 30.1161 68.6642 30.1283 68.5276 30.1423C68.6898 29.3808 68.7932 28.6013 68.8357 27.8113C69.1298 27.8154 69.3664 27.7706 69.4826 27.7422C70.0814 27.5968 70.4493 26.9935 70.304 26.3947C70.1593 25.7954 69.557 25.4286 68.9572 25.5728C68.9293 25.5792 68.8909 25.5809 68.8589 25.5804V25.4304C68.8612 25.4199 68.8636 25.4089 68.8671 25.3996C68.9258 25.2386 69.4815 25.0072 70.057 25.0235ZM52.2521 30.1051C51.3104 30.022 50.4217 29.9441 49.834 29.3733C49.0707 28.6315 48.8458 27.1522 49.3527 26.207C49.6485 25.6542 50.3298 25.0485 51.1262 25.0235C51.7005 25.0084 52.2579 25.2386 52.3161 25.3996C52.3347 25.4496 52.3387 25.5286 52.3318 25.5804C52.2992 25.5815 52.2562 25.5798 52.2266 25.5728C51.6278 25.4286 51.025 25.7954 50.8797 26.3942C50.7344 26.9935 51.1023 27.5968 51.7011 27.7422C51.8214 27.7712 52.0696 27.8183 52.3777 27.8108C52.4149 28.6007 52.5143 29.3808 52.6724 30.144C52.5294 30.1295 52.3887 30.1167 52.2521 30.1051ZM54.5912 27.0975V24.1364H66.6268V25.3246C66.6181 25.4496 66.6181 25.5769 66.6268 25.7053V26.9993C66.6268 31.3049 64.4789 35.2954 60.8813 37.6735C60.668 37.8141 60.3948 37.813 60.1844 37.6694C56.6821 35.2815 54.5912 31.3293 54.5912 27.0975ZM56.5699 48.6232C56.5699 47.782 57.039 47.0281 57.7941 46.6561L60.6081 45.2703L63.4239 46.6561C64.179 47.0281 64.6481 47.7815 64.6481 48.6237V48.872H56.5699V48.6232ZM84.7705 92.1203H84.2561L78.3444 80.9305C78.3432 80.9276 78.342 80.9253 78.3403 80.9224L78.2897 80.8271C78.2554 80.762 78.2147 80.7003 78.1682 80.6434C78.0374 80.4824 77.9933 80.2679 78.0497 80.0685C78.0706 79.9958 78.0839 79.9214 78.0898 79.8458L78.6519 72.3478L81.138 72.381L83.8102 72.417L81.9687 80.2865C81.7501 80.8497 81.7211 81.4735 81.8879 82.0553L84.7705 92.1203ZM72.3856 81.4182C72.1223 80.9828 72.188 80.4254 72.5454 80.0621C72.5838 80.0226 72.6198 79.9807 72.6524 79.9359L76.211 75.0462L75.8716 79.5796C75.7274 80.1865 75.7873 80.8183 76.0303 81.3804L75.7001 81.8083C75.6931 81.8176 75.6861 81.8263 75.6797 81.8356C75.306 82.3512 75.2083 83.0051 75.41 83.6045L77.3236 92.1203H76.7993L72.4629 81.5711C72.4408 81.5182 72.4152 81.4671 72.3856 81.4182Z" fill="#6ADF91"/>
<path d="M87.0981 95.8623H82.6786C82.0624 95.8623 81.5625 96.3616 81.5625 96.9784C81.5625 97.5951 82.0624 98.0944 82.6786 98.0944H87.0981C87.7143 98.0944 88.2142 97.5951 88.2142 96.9784C88.2142 96.3616 87.7143 95.8623 87.0981 95.8623Z" fill="#6ADF91"/>
<path d="M79.1196 95.8623H74.7001C74.0839 95.8623 73.584 96.3616 73.584 96.9784C73.584 97.5951 74.0839 98.0944 74.7001 98.0944H79.1196C79.7357 98.0944 80.2357 97.5951 80.2357 96.9784C80.2357 96.3616 79.7357 95.8623 79.1196 95.8623Z" fill="#6ADF91"/>
<path d="M37.059 95.8623H32.6395C32.0233 95.8623 31.5234 96.3616 31.5234 96.9784C31.5234 97.5951 32.0233 98.0944 32.6395 98.0944H37.059C37.6752 98.0944 38.1751 97.5951 38.1751 96.9784C38.1751 96.3616 37.6752 95.8623 37.059 95.8623Z" fill="#6ADF91"/>
<path d="M45.0375 95.8623H40.618C40.0019 95.8623 39.502 96.3616 39.502 96.9784C39.502 97.5951 40.0019 98.0944 40.618 98.0944H45.0375C45.6537 98.0944 46.1536 97.5951 46.1536 96.9784C46.1536 96.3616 45.6537 95.8623 45.0375 95.8623Z" fill="#6ADF91"/>
<path d="M34.357 33.4044C33.86 33.7683 33.7519 34.467 34.1158 34.964C34.3344 35.2627 34.6738 35.4209 35.0174 35.4209C35.2464 35.4209 35.4772 35.3511 35.6754 35.2052C37.0786 34.1786 38.4528 32.9417 38.0069 31.5541C37.7512 30.7583 37.035 30.4572 36.5938 30.2782C36.7613 30.0684 37.0815 29.7353 37.6878 29.258C38.172 28.8773 38.2557 28.1757 37.875 27.6909C37.4937 27.2067 36.7915 27.123 36.3073 27.5043C35.1255 28.4344 33.8263 29.6772 34.278 31.0414C34.5303 31.8029 35.1929 32.1157 35.6411 32.2999C35.4377 32.5301 35.0587 32.8905 34.357 33.4044Z" fill="#4BB1E9"/>
<path d="M44.4386 39.4305C45.0448 39.9071 45.3646 40.2402 45.5325 40.45C45.0913 40.6291 44.3752 40.9308 44.1194 41.726C43.6742 43.1141 45.0478 44.3505 46.4504 45.3776C46.6492 45.5229 46.88 45.5933 47.109 45.5933C47.4525 45.5927 47.792 45.4346 48.0106 45.1358C48.3745 44.6388 48.2663 43.9401 47.7693 43.5762C47.0677 43.0629 46.6887 42.7019 46.4853 42.4723C46.9334 42.2875 47.5961 41.9748 47.8478 41.2133C48.3001 39.849 47.0009 38.6062 45.8185 37.6761C45.3343 37.2948 44.6327 37.3785 44.2514 37.8633C43.8706 38.3475 43.9544 39.0491 44.4386 39.4305Z" fill="#4BB1E9"/>
<path d="M40.0591 38.9659C40.5608 38.9659 40.9688 38.5572 40.9688 38.0544C40.9688 37.5522 40.5608 37.1436 40.0591 37.1436C39.5575 37.1436 39.1494 37.5522 39.1494 38.0544C39.1494 38.5572 39.5575 38.9659 40.0591 38.9659Z" fill="#4BB1E9"/>
<path d="M33.3833 44.9376C33.885 44.9376 34.2931 44.5283 34.2931 44.0261C34.2931 43.5239 33.885 43.1152 33.3833 43.1152C32.8817 43.1152 32.4736 43.5239 32.4736 44.0261C32.4736 44.5283 32.8817 44.9376 33.3833 44.9376Z" fill="#4BB1E9"/>
<path d="M41.4048 26.1964C41.9065 26.1964 42.3145 25.7877 42.3145 25.2855C42.3145 24.7827 41.9065 24.374 41.4048 24.374C40.9032 24.374 40.4951 24.7827 40.4951 25.2855C40.4951 25.7877 40.9032 26.1964 41.4048 26.1964Z" fill="#4BB1E9"/>
<path d="M78.5207 33.4044C78.0231 33.7683 77.915 34.467 78.2789 34.964C78.4974 35.2627 78.8363 35.4209 79.1804 35.4209C79.4095 35.4209 79.6397 35.3511 79.8385 35.2052C81.2417 34.1786 82.6153 32.9422 82.17 31.5541C81.9142 30.7583 81.1981 30.4572 80.7569 30.2782C80.9243 30.0684 81.2446 29.7353 81.8509 29.258C82.3351 28.8773 82.4194 28.1757 82.038 27.6909C81.6567 27.2067 80.9551 27.123 80.4709 27.5043C79.2886 28.4344 77.9894 29.6772 78.4416 31.0414C78.6933 31.8029 79.356 32.1157 79.8042 32.2999C79.6013 32.5301 79.2223 32.8905 78.5207 33.4044Z" fill="#4BB1E9"/>
<path d="M91.9324 43.5762C91.2308 43.063 90.8512 42.702 90.6484 42.4724C91.0965 42.2875 91.7592 41.9748 92.0115 41.2133C92.4631 39.849 91.164 38.6062 89.9822 37.6762C89.498 37.2949 88.7958 37.3786 88.4145 37.8628C88.0337 38.3476 88.1174 39.0492 88.6016 39.4305C89.2079 39.9072 89.5282 40.2402 89.6956 40.4501C89.2544 40.6291 88.5383 40.9308 88.2825 41.726C87.8367 43.1135 89.2108 44.3505 90.6141 45.3776C90.8129 45.523 91.0436 45.5933 91.2721 45.5933C91.6162 45.5927 91.9551 45.4346 92.1737 45.1358C92.5375 44.6388 92.4294 43.9401 91.9324 43.5762Z" fill="#4BB1E9"/>
<path d="M84.2222 38.9659C84.7239 38.9659 85.1319 38.5572 85.1319 38.0544C85.1319 37.5522 84.7239 37.1436 84.2222 37.1436C83.7206 37.1436 83.3125 37.5522 83.3125 38.0544C83.3125 38.5572 83.7206 38.9659 84.2222 38.9659Z" fill="#4BB1E9"/>
<path d="M77.5464 44.9376C78.0481 44.9376 78.4562 44.5283 78.4562 44.0261C78.4562 43.5239 78.0481 43.1152 77.5464 43.1152C77.0448 43.1152 76.6367 43.5239 76.6367 44.0261C76.6367 44.5283 77.0448 44.9376 77.5464 44.9376Z" fill="#4BB1E9"/>
<path d="M85.5689 26.1964C86.0705 26.1964 86.4786 25.7877 86.4786 25.2855C86.4786 24.7827 86.0705 24.374 85.5689 24.374C85.0672 24.374 84.6592 24.7827 84.6592 25.2855C84.6592 25.7877 85.0672 26.1964 85.5689 26.1964Z" fill="#4BB1E9"/>
</svg>

<svg width="120" height="120" fill="none" xmlns="http://www.w3.org/2000/svg"><circle cx="60" cy="60" r="60" fill="#F3F3F3"/><path d="M76.051 94.353h2.668a1.115 1.115 0 001.089-1.361l-1.766-7.856 4.555 8.622c.193.366.573.595.987.595h2.667a1.117 1.117 0 001.073-1.423l-3.29-11.49a.546.546 0 01.024-.367c.027-.062.049-.126.064-.192l2.178-9.307v-.003l.007-.03.007-.043.01-.064c0-.019.001-.038.003-.056l.002-.043v-.026l-.02-2.127a1.116 1.116 0 00-1.115-1.106h-.011a1.115 1.115 0 00-1.105 1.127l.008.985-5.379-.072-.192-8.034.547.273a1.116 1.116 0 10.999-1.996L68.164 54.41a3.027 3.027 0 01-1.707-2.813l16.665 8.13c.543.262.897.82.901 1.422l.027 3.693a1.116 1.116 0 001.116 1.108h.008a1.116 1.116 0 001.108-1.124l-.026-3.694a3.849 3.849 0 00-1.829-3.229c.403-.363.722-.83.907-1.378l.82-2.419a3.267 3.267 0 00-.165-2.512 3.268 3.268 0 00-1.893-1.659l-.958-.324a3.268 3.268 0 00-2.512.166 3.267 3.267 0 00-1.659 1.893l-.82 2.42a3.314 3.314 0 00-.15.654L66.88 49.32v-.697c0-1.7-.947-3.22-2.47-3.97l-2.686-1.322.001-3.582a2.83 2.83 0 00.387-.215 15.042 15.042 0 004.528-4.674 2.298 2.298 0 001.558.262 1.116 1.116 0 10-.416-2.193.098.098 0 01-.05-.014.631.631 0 01.047-.313c.077-.163.872-.233 1.347-.275 1.106-.097 2.622-.23 3.779-1.355 1.48-1.437 1.872-3.995.893-5.821-.743-1.388-2.185-2.314-3.672-2.36-.5-.016-.95.044-1.348.157a1.536 1.536 0 00-1.452-1.045H53.892c-.68 0-1.259.447-1.458 1.062a4.47 4.47 0 00-1.377-.173c-1.487.046-2.928.972-3.671 2.36-.98 1.826-.588 4.384.892 5.821 1.158 1.124 2.673 1.257 3.78 1.354.474.042 1.27.112 1.346.276a.632.632 0 01.048.311c-.014.009-.036.018-.05.016a1.115 1.115 0 10-.416 2.192 2.301 2.301 0 001.542-.253 15.031 15.031 0 004.4 4.644c.18.122.369.222.565.3v3.518l-2.685 1.322a4.398 4.398 0 00-2.47 3.97v.799l-5.329 2.6a1.116 1.116 0 00.979 2.006l4.983-2.431a3.033 3.033 0 01-1.717 2.818l-11.887 5.943a1.116 1.116 0 10.999 1.996l.547-.273-.192 8.034-5.382.072.065-9.038c.004-.602.359-1.16.908-1.424l7.892-3.851a1.116 1.116 0 10-.979-2.006l-1.795.876a3.314 3.314 0 00-.15-.655l-.82-2.419a3.265 3.265 0 00-1.659-1.893 3.265 3.265 0 00-2.511-.166l-.958.324a3.27 3.27 0 00-1.893 1.66 3.265 3.265 0 00-.166 2.511l.82 2.42c.186.548.505 1.014.907 1.378a3.851 3.851 0 00-1.828 3.23l-.074 10.177v.023l.003.039v.02c.291 4.39.584 9.334.571 10.156l-3.259 11.38a1.116 1.116 0 001.073 1.423h2.667c.414 0 .794-.229.987-.595l4.556-8.624-1.765 7.858a1.115 1.115 0 001.088 1.36h2.667c.453 0 .86-.273 1.033-.691l4.6-11.19c.28-.565.16-1.31-.448-2.922-.36-.954-.9-2.21-1.602-3.736a171.06 171.06 0 00-2.336-4.847l.24-10.014 9.07-4.535a5.248 5.248 0 002.93-5.313h7.082a5.243 5.243 0 002.92 5.308l9.08 4.54.237 9.915-5.6 7.696a3.343 3.343 0 00-.464 3.929l4.59 11.169c.173.418.58.692 1.033.692zm-38.61-41.77a1.05 1.05 0 01.607-.533l.958-.324a1.054 1.054 0 011.34.662l.82 2.418c.091.268.073.555-.053.808-.125.253-.34.442-.608.533l-.958.324a1.057 1.057 0 01-1.34-.66l-.82-2.42a1.05 1.05 0 01.053-.807zM35.48 92.12h-.515l2.884-10.065c.064-.226.152-.532-.444-9.635l4.98-.067.181-.003c-.42 3.857-.916 7.777-1.125 8.487L35.48 92.12zm7.458 0h-.525l1.913-8.516a1.944 1.944 0 00-.242-1.73l-.433-.695c.16-.712.37-2.087.714-4.929.045-.37.088-.74.13-1.101 1.413 2.975 2.6 5.731 2.724 6.557l-4.28 10.414zM80.26 54.807l.82-2.42a1.05 1.05 0 011-.717c.115 0 .23.018.34.056l.958.324c.267.091.483.28.608.534.126.253.145.54.054.807l-.82 2.42a1.057 1.057 0 01-1.34.66l-.957-.324a1.05 1.05 0 01-.61-.533 1.047 1.047 0 01-.053-.807zM70.057 25.023c.796.026 1.478.631 1.774 1.184.507.945.281 2.424-.481 3.166-.588.571-1.477.649-2.419.732-.131.011-.267.023-.403.037.162-.761.265-1.54.308-2.33.294.003.53-.041.647-.07a1.116 1.116 0 00-.526-2.17.451.451 0 01-.098.008v-.15l.008-.03c.059-.161.614-.393 1.19-.377zm-17.805 5.082c-.942-.083-1.83-.16-2.418-.732-.763-.742-.988-2.22-.481-3.166.295-.553.977-1.159 1.773-1.184.575-.015 1.132.216 1.19.377.019.05.023.129.016.18a.448.448 0 01-.105-.007 1.116 1.116 0 00-.526 2.17c.12.028.369.075.677.068.037.79.136 1.57.294 2.333a25.842 25.842 0 00-.42-.039zm2.34-3.008v-2.96h12.035v1.188a2.78 2.78 0 000 .38V27c0 4.306-2.148 8.296-5.746 10.674a.623.623 0 01-.697-.004 12.79 12.79 0 01-5.593-10.571zm1.978 21.526a2.18 2.18 0 011.224-1.967l2.814-1.386 2.816 1.386a2.18 2.18 0 011.224 1.968v.248H56.57v-.249zm28.2 43.497h-.514l-5.912-11.19a.062.062 0 00-.004-.008l-.05-.095a1.103 1.103 0 00-.122-.184.637.637 0 01-.118-.575 1.12 1.12 0 00.04-.222l.562-7.498 2.486.033 2.672.036-1.841 7.87a2.78 2.78 0 00-.081 1.768L84.77 92.12zM72.386 81.418a1.112 1.112 0 01.16-1.356c.038-.04.074-.081.106-.126l3.559-4.89-.34 4.534a2.869 2.869 0 00.16 1.8l-.33.428c-.008.01-.015.018-.021.028a1.944 1.944 0 00-.27 1.769l1.914 8.515h-.525l-4.336-10.549a1.153 1.153 0 00-.077-.153zm14.712 14.444h-4.42a1.116 1.116 0 100 2.232h4.42a1.116 1.116 0 100-2.232zm-7.978 0H74.7a1.116 1.116 0 100 2.232h4.42a1.116 1.116 0 100-2.232zm-42.061 0h-4.42a1.116 1.116 0 100 2.232h4.42a1.116 1.116 0 100-2.232zm7.979 0h-4.42a1.116 1.116 0 100 2.232h4.42a1.116 1.116 0 100-2.232z" fill="#6ADF91"/><path d="M34.357 33.404a1.116 1.116 0 001.318 1.801c1.404-1.026 2.778-2.263 2.332-3.65-.256-.797-.972-1.098-1.413-1.277.167-.21.487-.543 1.094-1.02a1.116 1.116 0 00-1.38-1.754c-1.182.93-2.482 2.173-2.03 3.537.252.762.915 1.075 1.363 1.259-.203.23-.582.59-1.284 1.104zm10.082 6.026c.606.477.926.81 1.093 1.02-.44.18-1.157.48-1.413 1.276-.445 1.388.929 2.624 2.331 3.652a1.113 1.113 0 001.56-.242 1.116 1.116 0 00-.24-1.56c-.702-.513-1.081-.874-1.285-1.104.448-.184 1.111-.497 1.363-1.259.452-1.364-.847-2.607-2.03-3.537a1.115 1.115 0 10-1.38 1.755zm-4.379-.464a.911.911 0 000-1.822.911.911 0 000 1.822zm-6.677 5.972a.912.912 0 000-1.823.911.911 0 000 1.823zm8.022-18.742a.911.911 0 000-1.822.912.912 0 000 1.822zm37.115 7.208a1.116 1.116 0 101.319 1.801c1.403-1.026 2.776-2.263 2.331-3.65-.256-.797-.972-1.098-1.413-1.277.167-.21.488-.543 1.094-1.02a1.116 1.116 0 10-1.38-1.754c-1.182.93-2.482 2.173-2.03 3.537.252.762.915 1.075 1.363 1.259-.203.23-.582.59-1.283 1.104zm13.412 10.172c-.701-.513-1.08-.874-1.284-1.104.449-.184 1.111-.497 1.364-1.259.451-1.364-.848-2.607-2.03-3.537a1.117 1.117 0 00-1.38 1.755c.606.476.926.81 1.094 1.02-.442.178-1.158.48-1.413 1.275-.446 1.388.928 2.624 2.331 3.652a1.111 1.111 0 001.56-.242 1.116 1.116 0 00-.242-1.56zm-7.71-4.61a.911.911 0 000-1.822.911.911 0 000 1.822zm-6.676 5.972a.912.912 0 000-1.823.911.911 0 000 1.823zm8.023-18.742a.911.911 0 000-1.822.911.911 0 000 1.822z" fill="#4BB1E9"/></svg>
